!!!!SEGMENT: Wil1005a-Missa_Gaude_Barbara-Kyrie
!!!id: Wil1005a
!!!AGN: Mass; Kyrie
!!!voices: 4
!!!OPR: Missa Gaude Barbara
!!!COM: Adrian Willaert
!!!OTL: Kyrie
**kern	**kern	**kern	**kern
*part4	*part3	*part2	*part1
*staff4	*staff3	*staff2	*staff1
*I"Bassus	*I"Tenor	*I"Altus	*I"Superius
*I'B	*I'T	*I'A	*I'S
*clefF4	*clefGv2	*clefG2	*clefG2
*k[]	*k[]	*k[]	*k[]
*C:	*C:	*C:	*C:
*M2/1	*M2/1	*M2/1	*M2/1
*met(C|)	*met(C|)	*met(C|)	*met(C|)
=1	=1	=1	=1
!!section: Kyrie I
!!!OMD: Kyrie I
0r	0r	0A	0r
=2	=2	=2	=2
0r	0r	1c	0r
.	.	2.d	.
.	.	4c	.
=3	=3	=3	=3
0r	0r	4d	0a
.	.	4e	.
.	.	1f	.
.	.	4e	.
.	.	4d	.
=4	=4	=4	=4
0r	0r	1e	1cc
.	.	1d	[1dd
=5	=5	=5	=5
0r	0r	2.f	2dd]
.	.	.	2cc
.	.	4e	.
.	.	4f	1cc
.	.	4g	.
.	.	[2a	.
=6	=6	=6	=6
0r	0r	2a]	1.ff
.	.	4g	.
.	.	4f	.
.	.	2.g	.
.	.	.	2ee
.	.	4a	.
=7	=7	=7	=7
0r	0r	2b-i	2.dd
.	.	2g	.
.	.	.	8ccL
.	.	.	8bJ
.	.	1a	2.cc
.	.	.	4dd
=8	=8	=8	=8
0r	0r	2.g	2ee
.	.	.	1dd
.	.	4f	.
.	.	1e	.
.	.	.	2cc
=9	=9	=9	=9
1r	0r	2.d	2b
.	.	.	2.a
.	.	4e	.
[1A	.	2f	.
.	.	.	4b
.	.	[2e	[2cc
=10	=10	=10	=10
2A]	0r	2e]	2cc]
2B	.	2d	4b
.	.	.	4a
1c	.	1e	2g
.	.	.	[2a
=11	=11	=11	=11
2.d	0r	0r	4a]
.	.	.	4g
.	.	.	4f
4c	.	.	4e
2d	.	.	2f
[2c	.	.	2g
=12	=12	=12	=12
4c]	1.A	0r	1e
4B	.	.	.
4A	.	.	.
4G	.	.	.
2F	.	.	1d
2G	2B	.	.
=13	=13	=13	=13
1E	1c	0r	0r
1D	[1d	.	.
=14	=14	=14	=14
2.F	2d]	0r	0r
.	2c	.	.
4E	.	.	.
4F	1c	.	.
4G	.	.	.
[2A	.	.	.
=15	=15	=15	=15
4A]	1.f	1r	0r
4G	.	.	.
4F	.	.	.
4E	.	.	.
2D	.	2r	.
2C	2e	[2cc	.
=16	=16	=16	=16
1G	2.d	2cc]	0r
.	.	2b	.
.	8cL	.	.
.	8BJ	.	.
1F	2.c	2.a	.
.	4d	8gL	.
.	.	8fJ	.
=17	=17	=17	=17
1r	2e	2g	2r
.	1d	2a	1ff
2r	.	4b	.
.	.	4a	.
2A	2c	[2a	2ee
=18	=18	=18	=18
2.B-i	1d	2a]	2.dd
.	.	2g	.
4A	.	.	8ccL
.	.	.	8bJ
4F	2.f	[1a	2.cc
4G	.	.	.
[2A	.	.	.
.	4e	.	4dd
=19	=19	=19	=19
2A]	2c	1a]	2ee
2F	2f	.	1dd
2G	1e	2r	.
2A	.	[2a	2cc#i
=20	=20	=20	=20
2D	1r	2a]	1dd
2.B-i	.	4g	.
.	.	4f	.
.	[1d	2.g	2r
4A	.	.	.
[2G	.	.	[2dd
.	.	4a	.
=21	=21	=21	=21
2G]	2d]	2b-i	4dd]
.	.	.	4ee
2F	2d	1a	1ff
1B-i	2.d	.	.
.	.	2g	4ee
.	4e	.	4dd
=22	=22	=22	=22
0A	1f	0a	2cc
.	.	.	1dd
.	2e	.	.
.	[2f	.	2cc
=23	=23	=23	=23
1D	2f]	1r	1dd
.	4e	.	.
.	4d	.	.
1A	[1c	[1e	1r
=24	=24	=24	=24
2r	1c]	2e]	1.g
1c	.	2e	.
.	2r	2.e	.
4B	2c	.	2a
4A	.	4f	.
=25	=25	=25	=25
1G	2d	1g	2.b
.	2.e	.	.
.	.	.	8aL
.	.	.	8bJ
2A	.	2e	2cc
.	4c	.	.
2G	2d	[2g	[2b
=26	=26	=26	=26
2c	2e	2g]	2b]
2d	1f	4f	1a
.	.	4e	.
1B-X	.	1d	.
.	4e	.	2g
.	4d	.	.
=27	=27	=27	=27
2A	2c	2e	0a
1d	2d	2.f	.
.	1A	.	.
.	.	4e	.
2c#i	.	[2e	.
=28	=28	=28	=28
2d	1f	2e]	2.a
2D	.	2d	.
.	.	.	4b
2.A	2e	1e	1cc
.	[2a	.	.
4G	.	.	.
=29	=29	=29	=29
2F	2a]	2d	2a
2E	2g	2e	1cc
1F	2a	2A	.
.	2A	[2c	4b
.	.	.	4a
=30	=30	=30	=30
1E	2.e	4c]	1g
.	.	4B	.
.	.	2B	.
.	4d	.	.
2F	2c	2A	2a
2G	2B	[2e	[2b
=31	=31	=31	=31
1A	1c	4e]	2b]
.	.	4c	.
.	.	2f	2.a
1E	1B	1e	.
.	.	.	4g#i
.	.	.	2g#i
=32	=32	=32	=32
2.A	1r	1.c	0a
4G	.	.	.
4F	[1A	.	.
4E	.	.	.
[2F	.	2c	.
=33	=33	=33	=33
4F]	2A]	2c	1r
4E	.	.	.
2D	4G	2d	.
.	4F	.	.
2C	2G	2.e	[1cc
4c	2A	.	.
4B	.	8dL	.
.	.	8eJ	.
=34	=34	=34	=34
4A	2F	2f	2cc]
4G	.	.	.
2.A	2.c	1e	2cc
.	.	.	2cc
4G	4B	.	.
2F	2A	[2d	2dd
=35	=35	=35	=35
1E	2G	2d]	2.ee
.	2g	2c#i	.
.	.	.	8ddL
.	.	.	8eeJ
2r	2f	2d	2ff
2A	[2a	2cny	[2ee
=36	=36	=36	=36
2c	4a]	2A	2ee]
.	4g	.	.
2d	2f	2.a	1dd
1A	1e	.	.
.	.	4g	.
.	.	2e	2cc#i
=37	=37	=37	=37
[0Dl	[0dl	2f	[0ddl
.	.	2d	.
.	.	[1al	.
=38	=38	=38	=38
0D]	0d]	0a]	0dd]
=39||	=39||	=39||	=39||
*M2/1	*M2/1	*M2/1	*M2/1
*met(C|)	*met(C|)	*met(C|)	*met(C|)
!!section: Christe
!!!OMD: Christe
1r	1.c	0r	0r
[1A	.	.	.
.	2d	.	.
=40	=40	=40	=40
1A]	2.e	0r	0r
.	8dL	.	.
.	8eJ	.	.
1A	2f	.	.
.	[2e	.	.
=41	=41	=41	=41
1D	2e]	0r	0r
.	1d	.	.
1E	.	.	.
.	2c#i	.	.
=42	=42	=42	=42
1D	2d	0r	0r
.	1f	.	.
1d	.	.	.
.	4e	.	.
.	4d	.	.
=43	=43	=43	=43
2c	2e	0r	0r
1d	2d	.	.
.	2.f	.	.
4c	.	.	.
4B	4g	.	.
=44	=44	=44	=44
1A	1a	1r	1.cc
2r	1A	1a	.
2F	.	.	4b
.	.	.	4a
=45	=45	=45	=45
2E	1r	2g	2b
2.F	.	1a	2a
.	2.A	.	2.cc
4G	.	.	.
[2A	.	4g	.
.	4B	4f	4dd
=46	=46	=46	=46
2A]	2c	2e	2ee
4G	1d	2f	2a
4F	.	.	.
2G	.	2.d	1b
2G	4c	.	.
.	4B	4e	.
=47	=47	=47	=47
4F	2.c	1f	1a
4G	.	.	.
4A	.	.	.
4B	4d	.	.
2c	2e	2r	1r
[2d	2d	[2f	.
=48	=48	=48	=48
2d]	2.f	2f]	1.a
4c	.	4e	.
4B	4g	4d	.
2c	2a	2e	.
2G	[2g	2d	2b
=49	=49	=49	=49
2A	4g]	1f	2cc
.	4f	.	.
2B-i	2.f	.	1dd
1G	.	1g	.
.	4e	.	.
.	4e	.	4cc
.	4d	.	4b
=50	=50	=50	=50
1F	2f	2.a	2.cc
.	1c	.	.
.	.	8gL	4dd
.	.	8fJ	.
1r	.	2g	2ee
.	2B	2d	[2dd
=51	=51	=51	=51
2r	1c	2e	4dd]
.	.	.	4cc
1F	.	2f	1cc
.	1r	1d	.
2G	.	.	2b
=52	=52	=52	=52
2.A	0r	2r	1cc
.	.	1c	.
4G	.	.	.
4F	.	.	2.a
4E	.	.	.
2F	.	2d	.
.	.	.	4b
=53	=53	=53	=53
2E	0r	2e	2cc
2D	.	2f	1dd
1G	.	2.d	.
.	.	.	4cc
.	.	4e	4b
=54	=54	=54	=54
0r	2r	2f	2a
.	1G	1g	1b-i
.	2A	[2f	2a
=55	=55	=55	=55
2r	2B	2f]	1g
2C	2c	2e	.
2D	2.A	[1f	1f
[2F	.	.	.
.	4B	.	.
=56	=56	=56	=56
2F]	2c	1f]	1r
4E	1d	.	.
4D	.	.	.
2E	.	1r	2r
2F	[2c	.	[2ff
=57	=57	=57	=57
1D	2c]	1r	2ff]
.	2B	.	4ee
.	.	.	4dd
[1A	2.c	2r	2ff
.	.	[2cc	2ee
.	4d	.	.
=58	=58	=58	=58
2A]	4e	2cc]	2cc
.	4c	.	.
4G	2f	4b	2.dd
4F	.	4a	.
2G	2.e	2b	.
.	.	.	4cc
2A	.	[2a	[2cc
.	8dL	.	.
.	8cJ	.	.
=59	=59	=59	=59
2F	1d	2a]	2cc]
2G	.	4g	2b
.	.	4f	.
2.A	2.c	2e	[1cc
.	.	2a	.
4B	4d	.	.
=60	=60	=60	=60
2c	2e	2g	1cc]
2A	2f	1f	.
1G	1g	.	1b
.	.	2e	.
=61	=61	=61	=61
2.F	0c	1.f	1a
4G	.	.	.
4A	.	.	2.cc
4B	.	.	.
[2c	.	[2e	.
.	.	.	4dd
=62	=62	=62	=62
2c]	0r	2e]	1ee
4B	.	4d	.
4A	.	4c	.
2B	.	2d	1r
[2A	.	2c	.
=63	=63	=63	=63
2A]	1r	1B	0r
2G#i	.	.	.
[1A	2r	1A	.
.	[2c	.	.
=64	=64	=64	=64
1A]	4c]	1r	0r
.	4d	.	.
.	2e	.	.
1D	2d	2.f	.
.	[2f	.	.
.	.	4g	.
=65	=65	=65	=65
2.F	2f]	4a	0r
.	.	4b	.
.	4e	1cc	.
4G	4d	.	.
2A	2c	.	.
2F	[2f	4b	.
.	.	4a	.
=66	=66	=66	=66
2G	4f]	2b	0r
.	4e	.	.
2A	1e	1a	.
1B-i	.	.	.
.	2d	2g	.
=67	=67	=67	=67
0A	1e	1a	2r
.	.	.	2.cc
.	2.c	1e	.
.	.	.	4dd
.	.	.	2ee
.	4B	.	.
=68	=68	=68	=68
0D	1A	2.f	2dd
.	.	.	1ff
.	.	4g	.
.	2r	2a	.
.	2d	2f	4ee
.	.	.	4dd
=69	=69	=69	=69
0r	2e	2g	2cc
.	2d	2a	2.ff
.	1g	1b-i	.
.	.	.	4ee
.	.	.	[2ee
=70	=70	=70	=70
1d	1f	1a	2ee]
.	.	.	2dd
2.c	[1e	2r	[1ee
.	.	2A	.
4B	.	.	.
=71	=71	=71	=71
4A	1e]	2.c	1ee]
4G	.	.	.
1A	.	.	.
.	.	4d	.
.	1A	2e	1r
4G	.	2f	.
4F	.	.	.
=72	=72	=72	=72
2E	2.B	2.g	0r
1G	.	.	.
.	4A	4f	.
.	2B	4e	.
.	.	4d	.
2F	2c	[2f	.
=73	=73	=73	=73
2D	2d	2f]	2r
2.F	2c	4e	2a
.	.	4d	.
.	2.A	1c	2.cc
4G	.	.	.
[2A	.	.	.
.	4B	.	4dd
=74	=74	=74	=74
2A]	2c	2r	2ee
4G	2d	2A	2ff
4F	.	.	.
[1E	2.e	2c	2.gg
.	.	4B	.
.	4f	4A	4ff
=75	=75	=75	=75
2E]	2g	2G	4ee
.	.	.	4dd
2D	1a	2d	1ff
2.F	.	4c	.
.	.	4A	.
.	4g	[2a	4ee
4G	4f	.	4dd
=76	=76	=76	=76
2A	2e	2a]	2cc
2B-i	2d	2g	1dd
1A	1e	[1al	.
.	.	.	2cc#i
=77	=77	=77	=77
0Dl	0dl	0a]	0ddl
=78||	=78||	=78||	=78||
*M2/1	*M2/1	*M2/1	*M2/1
*met(C|)	*met(C|)	*met(C|)	*met(C|)
!!section: Kyrie II
!!!OMD: Kyrie II
0r	0r	0r	1dd
.	.	.	[1ff
=79	=79	=79	=79
0r	0r	1d	2ff]
.	.	.	4ee
.	.	.	4dd
.	.	[1a	2ff
.	.	.	2ee
=80	=80	=80	=80
0r	0r	2a]	2cc
.	.	4g	2.dd
.	.	4f	.
.	.	2g	.
.	.	.	4ee
.	.	2f	[2ff
=81	=81	=81	=81
0r	0r	2d	2ff]
.	.	1a	2ee
.	.	.	2cc
.	.	4g	[2dd
.	.	4f	.
=82	=82	=82	=82
0r	0r	2g	2dd]
.	.	1a	2cc
.	.	.	1b
.	.	2g#i	.
=83	=83	=83	=83
0r	1d	2a	[0a
.	.	2.f	.
.	[1f	.	.
.	.	4e	.
.	.	[2d	.
=84	=84	=84	=84
1D	2f]	2d]	0a]
.	4e	4c	.
.	4d	4B	.
[1A	2f	2.c	.
.	2e	.	.
.	.	4d	.
=85	=85	=85	=85
2A]	2c	2e	0r
4G	2.d	2f	.
4F	.	.	.
2G	.	1d	.
.	4e	.	.
2F	[2f	.	.
=86	=86	=86	=86
2D	2f]	0r	0r
1A	2e	.	.
.	2c	.	.
4G	[2d	.	.
4F	.	.	.
=87	=87	=87	=87
2G	2d]	0r	0r
1A	2c	.	.
.	1B	.	.
2G#i	.	.	.
=88	=88	=88	=88
2A	2r	0r	1a
2.c	2.A	.	.
.	.	.	[1cc
4B	4B	.	.
[2A	4c	.	.
.	4d	.	.
=89	=89	=89	=89
2A]	2e	1A	2cc]
4G	2f	.	4b
4F	.	.	4a
1E	1g	[1e	2cc
.	.	.	2b
=90	=90	=90	=90
2r	1c	2e]	2g
2F	.	4d	2.a
.	.	4c	.
2D	1r	2d	.
.	.	.	4b
[2A	.	2c	[2cc
=91	=91	=91	=91
2A]	1r	2A	2cc]
4G	.	1e	2b
4F	.	.	.
2G	2r	.	2g
[2F	[2A	4d	[2a
.	.	4c	.
=92	=92	=92	=92
4F]	4A]	2d	2a]
4E	4B	.	.
2C	2c	1e	2g
1D	2A	.	1f
.	2B	2d	.
=93	=93	=93	=93
1A	2c	1e	0e
.	2.A	.	.
2r	.	[1cc	.
.	4B	.	.
[2A	4c	.	.
.	4d	.	.
=94	=94	=94	=94
2A]	2e	2cc]	1a
2F	2f	2cc	.
2G	2d	2b	2g
2A	2c	[2a	2e
=95	=95	=95	=95
4D	2r	2a]	4f
4E	.	.	4g
4F	1c	4g	4a
4G	.	4f	4b
2A	.	2e	2.cc
2F	4B	[2a	.
.	4A	.	4dd
=96	=96	=96	=96
1E	2.B	4a]	4ee
.	.	4g	4ff
.	.	2.g	1ee
.	4c	.	.
1r	1A	.	.
.	.	8f#iL	.
.	.	8eJ	.
.	.	2f#i	4dd
.	.	.	4cc
=97	=97	=97	=97
2r	1G	2.g	0b
2.E	.	.	.
.	.	4f	.
.	[1g	2e	.
4F	.	.	.
4G	.	4d	.
4A	.	4c	.
=98	=98	=98	=98
2B	2g]	2d	0r
2c	2g	2e	.
1A	2f	1c	.
.	[2e	.	.
=99	=99	=99	=99
1.G	2e]	1r	0r
.	4d	.	.
.	4c	.	.
.	2B	2r	.
4F	[2e	[2c	.
4E	.	.	.
=100	=100	=100	=100
2F	4e]	2c]	1r
.	4d	.	.
2G	2.d	2B	.
1E	.	2.G	2r
.	8c#iL	.	.
.	8BJ	.	.
.	2c#i	.	[2gg
.	.	4A	.
=101	=101	=101	=101
1D	1d	2B	2gg]
.	.	2A	2ff
2.C	1r	2.c	2.ee
4D	.	8BL	8ddL
.	.	8AJ	8ccJ
=102	=102	=102	=102
2E	1.g	2G	2b
2C	.	2c	2.ee
1D	.	2A	.
.	.	.	4dd
.	2f	[2a	2dd
=103	=103	=103	=103
2A	2e	2a]	2cc
2B-i	2d	2g	1dd
1A	2f	[1a	.
.	[2e	.	2cc
=104	=104	=104	=104
2F	4e]	2a]	1dd
.	4d	.	.
2G	1d	2g	.
1A	.	2.f	1r
.	2c	.	.
.	.	4e	.
=105	=105	=105	=105
2G	1d	2g	1.dd
2.B	.	1f	.
.	1r	.	.
4A	.	.	.
2c	.	[2e	2cc
=106	=106	=106	=106
1G	1r	2e]	2.b
.	.	2d	.
.	.	.	4a
2r	[1g	1e	2cc
[2G	.	.	[2b
=107	=107	=107	=107
2G]	2g]	2d	2b]
2A	2f	2c	1a
1E	2.e	1B	.
.	.	.	2g#i
.	4d	.	.
=108	=108	=108	=108
1A	2f	1A	4a
.	.	.	4b
.	1e	.	4cc
.	.	.	4a
2G	.	2r	2b
2F	[2d	[2a	2a
=109	=109	=109	=109
1E	4d]	2a]	1ee
.	4c#i	.	.
.	2c#i	2g	.
1D	2d	2.f	1a
.	2f	.	.
.	.	4e	.
=110	=110	=110	=110
2r	2e	2g	1b
1d	4d	2.f	.
.	4e	.	.
.	4f	.	1a
.	4g	4e	.
2c	[2a	[2e	.
=111	=111	=111	=111
1B	2a]	2e]	2r
.	2g	2d	1dd
2.A	2f	1a	.
.	[2e	.	2cc
4G	.	.	.
=112	=112	=112	=112
4E	2e]	1g	2.b
4F	.	.	.
2G	2d	.	.
.	.	.	8aL
.	.	.	8bJ
4C	1e	2r	2cc
4D	.	.	.
4E	.	[2g	[2b
4F	.	.	.
=113	=113	=113	=113
2G	2d	4g]	2b]
.	.	4f	.
2A	2c	4e	1a
.	.	4d	.
1E	1B	1e	.
.	.	.	2g#i
=114	=114	=114	=114
0Al	0Al	0cl	0al
==	==	==	==
*-	*-	*-	*-
!!!system-decoration: s1,s2,s3,s4
!!!YEM: © Irene Holzer
!!!RDF**kern: i = editorial accidental
!!!RDF**kern: l = terminal long
!!!ENC: Maura Sugg
!!!END: 2026/4/5
!!!EED: Benjamin Ory
!!!EEV: 2026/04/22
!!!YEC: Copyright 2026 Irene Holzer, All Rights Reserved
!!!ONB: Translated from MusicXML on 2026/04/22
!!!verovio: header encoded
!!!header-left: Edited by Irene Holzer\n
!!!header-right:
!!!header-center: